X:1
T:He Saves Me
T:He Saves Me
T:Zollie Stuart
T:George Rutledge Stuart, 1896
T:Public Domain Courtesy of the Cyber Hymnal™
T:Public Domain Courtesy of the Cyber Hymnal™
C:Zollie Stuart
Z:Public Domain
Z:Courtesy of the Cyber Hymnal™
%%score ( 1 2 ) ( 3 4 )
L:1/8
Q:1/4=107
M:4/4
K:Eb
V:1 treble 
V:2 treble 
V:3 bass 
V:4 bass 
V:1
 (EG) | [GB]2 [FB]2 [EB]2 (EG) | [GB]2 [FB]2 E2 z2 | [EG][GB] [GB]>[Ac] [GB][EG]E[EG] | %4
w: 1.~Je- *|sus, my all, to *|Heav’n is gone,|Glo- ry hal- le- lu- jah, Je- sus|
w: 2.~This *|is the way I *|long have sought,|Glo- ry hal- le- lu- jah, Je- sus|
w: 3.~The *|King’s high- way of *|ho- li- ness,|Glo- ry hal- le- lu- jah, Je- sus|
w: 4.~My *|grief a bur- den *|long has been,|Glo- ry hal- le- lu- jah, Je- sus|
w: 5.~Lo! *|glad I come; and *|Thou, blest Lamb,|Glo- ry hal- le- lu- jah, Je- sus|
w: 6.~No- *|thing but sin have *|I to give,|Glo- ry hal- le- lu- jah, Je- sus|
w: 7.~Then *|will I tell to *|sin- ners ’round,|Glo- ry hal- le- lu- jah, Je- sus|
 [DF]4 E2 (EG) | [GB]2 [FB]2 [EB]2 (EG) | [GB]2 [FB]2 E2 z2 | [EG][GB] [GB]>[Ac] [GB][EG]E[EG] | %8
w: saves me; He *|whom I fix my *|hopes up- on,|Glo- ry hal- le- lu- jah, Je- sus|
w: saves me; And *|mourned be- cause I *|found it not,|Glo- ry hal- le- lu- jah, Je- sus|
w: saves me; I’ll *|go, for all His *|paths are peace,|Glo- ry hal- le- lu- jah, Je- sus|
w: saves me; Be- *|cause I was not *|saved from sin,|Glo- ry hal- le- lu- jah, Je- sus|
w: saves me; Shalt *|take me to Thee, *|as I am;|Glo- ry hal- le- lu- jah, Je- sus|
w: saves me; No- *|thing but love shall *|I re- ceive,|Glo- ry hal- le- lu- jah, Je- sus|
w: saves me; What *|a dear Sav- ior *|I have found,|Glo- ry hal- le- lu- jah, Je- sus|
 [DF]4 E2 ||"^Refrain" [EB]2 | [Ec]4 [Ae]2 [Ae]2 | [Ge]4 [GB]2 z2 | %12
w: saves me.||||
w: saves me.||||
w: saves me.|He|saves me, He|saves me,|
w: saves me.||||
w: saves me.||||
w: saves me.||||
w: saves me.||||
 [EG][GB] [GB]>[Ac] [GB][EG]E[EG] | [DF]4 E2 [EB]2 | [Ec]4 [Ae]2 [Ae]2 | [Ge]4 [GB]2 z2 | %16
w: ||||
w: ||||
w: Glo- ry hal- le- lu- jah, Je- sus|saves me. He|saves me, He|saves me,|
w: ||||
w: ||||
w: ||||
w: ||||
 [EG][GB] [GB]>[Ac] [GB][EG]E[EG] | [DF]4 E2 |] %18
w: ||
w: ||
w: Glo- ry hal- le- lu- jah, Je- sus|saves me.|
w: ||
w: ||
w: ||
w: ||
V:2
 E2 | x6 E2 | x4 E2 x2 | x6 E x | x4 E2 E2 | x6 E2 | x4 E2 x2 | x6 E x | x4 E2 || x2 | x8 | x8 | %12
 x6 E x | x4 E2 x2 | x8 | x8 | x6 E x | x4 E2 |] %18
V:3
 (G,B,) | [E,B,]2 [E,A,]2 [E,G,]2 (G,B,) | [E,B,]2 [E,A,]2 [E,G,]2 z2 | %3
w: ~ *|~ ~ ~ ~ *|~ ~ ~|
 [E,B,][E,B,] [E,E]>[E,E] [E,E][E,B,][E,G,][E,B,] | [B,,A,]4 [E,G,]2 (G,B,) | %5
w: ~ ~ ~ ~ ~ ~ ~ ~|~ ~ ~ *|
 [E,B,]2 [E,A,]2 [E,G,]2 (G,B,) | [E,B,]2 [E,A,]2 [E,G,]2 z2 | %7
w: ~ ~ ~ ~ *|~ ~ ~|
 [E,B,][E,B,] [E,E]>[E,E] [E,E][E,B,][E,G,][E,B,] | [B,,A,]4 [E,G,]2 || z2 | %10
w: ~ ~ ~ ~ ~ ~ ~ ~|~ ~||
 z2 [A,E]>[A,E] [A,E][A,E] z2 | z2 [E,E]>[E,B,] [E,B,][E,B,] z2 | %12
w: Hal- le- lu- jah,|Hal- le- lu- jah,|
 [E,B,][E,B,] [E,E]>[E,E] [E,E][E,B,][E,G,][E,B,] | [B,,A,]4 [E,G,]2 z2 | %14
w: ~ ~ ~ ~ ~ ~ ~ ~|~ ~|
 z2 [A,E]>[A,E] [A,E][A,E] z2 | z2 [E,E]>[E,B,] [E,B,][E,B,] z2 | %16
w: Hal- le- lu- jah,|Hal- le- lu- jah,|
 [E,B,][E,B,] [E,E]>[E,E] [E,E][E,B,][E,G,][E,B,] | [B,,A,]4 [E,G,]2 |] %18
w: ||
V:4
 E,2 | x6 E,2 | x8 | x8 | x6 E,2 | x6 E,2 | x8 | x8 | x6 || x2 | x8 | x8 | x8 | x8 | x8 | x8 | x8 | %17
 x6 |] %18

